teeny/outline/list-layout.svg

<svg width="15" height="15" viewBox="0 0 15 15" fill="none" xmlns="http://www.w3.org/2000/svg">
<path d="M7 3.5H15M7 11.5H15M1.5 1.5H3.5C4.05228 1.5 4.5 1.94772 4.5 2.5V4.5C4.5 5.05228 4.05228 5.5 3.5 5.5H1.5C0.947715 5.5 0.5 5.05228 0.5 4.5V2.5C0.5 1.94772 0.947715 1.5 1.5 1.5ZM1.5 9.5H3.5C4.05228 9.5 4.5 9.94772 4.5 10.5V12.5C4.5 13.0523 4.05228 13.5 3.5 13.5H1.5C0.947715 13.5 0.5 13.0523 0.5 12.5V10.5C0.5 9.94772 0.947715 9.5 1.5 9.5Z" stroke="black"/>
</svg>

<svg viewBox="0 0 15 15" xmlns="http://www.w3.org/2000/svg"><path fill="none" stroke="#000" d="M7 3.5h8m-8 8h8M1.5 1.5h2c.55 0 1 .44 1 1v2c0 .55-.45 1-1 1h-2c-.56 0-1-.45-1-1v-2c0-.56.44-1 1-1Zm0 8h2c.55 0 1 .44 1 1v2c0 .55-.45 1-1 1h-2c-.56 0-1-.45-1-1v-2c0-.56.44-1 1-1Z"/></svg>
